X: 62
T: Praeludia organi op. 5 – Grave
C: Franciszek Walczyński
%%abc-version 2.0
%%abcx-abcm2ps-target-version 5.9.1 (29 Sep 2008)
%%abc-creator hum2abc beta
%%abcx-conversion-date 2021/10/04 07:38:40
%%abc-edited-by Andrzej Borzym
%%abc-edited-by Krzysztof Stępień
%%abcx-initial-encoding-date 2021-07-26
%%humdrum-veritas 1271519280
%%humdrum-veritas-data 2014777171
%%linebreak <none>
%%barnumbers 0
L: 1/4
M: C|
N: Derived from pl-kozmzk--mzk-m-159--051_walczynski-franciszek--praeludia-organi-op-5-grave.krn
Q: "51. Grave."
%%staves {1 2}
V: 1 clef=treble
V: 2 clef=bass
K: Gb
[V:1] e2f=d & [B2G2][c2A2] | 
[V:2] E,4- & E,,4- | 
[V:1] e2B2 & [B2G2]G2 | 
[V:2] E,4 & E,,4 | 
[V:1] c4 & G2AG | 
[V:2] E2FE- & A,,4 | 
[V:1] B4 & F4 | 
[V:2] E2=D2 & D,4 | 
[V:1] B3=d & zAGF | 
[V:2] z4 & z4 | 
[V:1] e_dc=c & G=GA_G | 
[V:2] z4 & z4 | 
[V:1] _d_cBA & F2GF | 
[V:2] z2zB,- & z2z=D, | 
[V:1] GAGF & E3=D | 
[V:2] B,CB,3/A,/ & E,A,,B,,2 | 
[V:1] E3F & E_DCE- | 
[V:2] G,=G,A,2 & C,B,,A,,C, | 
[V:1] G2F2 & E3=D | 
[V:2] B,/E,/F,/_G,/ A,/C/B,/A,/ & B,,4 | 
[V:1] E4- & B,CB,A, | 
[V:2] G,A,G,F, & E,,4- | 
[V:1] !fermata!E4 & G,4 |]  
[V:2] E,4 & !fermata!E,,4 |]  


